X:66
T:The Bath Waltz
C:Cahusac: 24 Country Dances for the year 1798
C:Counter-melody: Colin Hume, 2022
M:3/4
R:Waltz
L:1/8
%%MIDI beat 100 95 80
S:Colin Hume's website,  colinhume.com  - chords can also be printed below the stave.
Q:1/4=120
K:G
P:A
V:1
%%MIDI program 71       % Clarinet
%%MIDI chordprog 6      % Harpsichord
%%MIDI bassprog 6
%%MIDI gchord fIhgih
%%MIDI control 10 0     % Left speaker
|: (3DEF | "G"G2 G2 G2 | "G"G4 DG | "Em"B2 B2 B2 | "Em"B4 GB |\
"G"d2 B2 G2 | "Am"e2 c2 A2 | "D"F2 FG AF | "G"G4 :|
V:2
%%MIDI program 69       % English Horn
%%MIDI control 10 127   % Right speaker
|: D2 | B,2 B,C DC | B,4 D2 | E2 EF GF | E4 G2 |\
B2 G2 D2 | C2 E2 C2 | A,2 D2 C2 | B,4 :|
P:B
V:1
|: Bd | "D7"dc c2 AF | "G"AG G2 Bd | "D7"dc A2 f2 | "G"g4 Bd |\
"D7"dc c2 AF | "Em"AG G2 Bd | "Am"e^d ec "D7"AF | "G"G4 :|
V:2
|: G2 | FD D2 C2 | CB, B,2 G2 | FD D2 A2 | B4 G2 |\
FD D2 C2 | B,E E2 G2 | cB cA FD | B,4 :|
P:C
V:1
|: D2 | "G"GF GA Bc | "G"d2 Bc d2 | "Am"e2 E2 A2 | "D7"GF E2 D2 |\
"G"GF GA Bc | "Em"d2 Bc d2 | "Am"e^d ec "D7"AF | "G"G4 :|
V:2
|: D2 | B,2 D2 G2 | B,2 D2 G2 | A,2 C2E2 | D2 C2 A,2 |\
B,2 D2 G2 | B,2 E2 G2 | A,2 C2 D2 | G,4 :|

